Obsidian-SemiLight/actions/22s/games-highscores.svg

<svg viewBox="0 0 22 22" xmlns="http://www.w3.org/2000/svg"><path d="m15.978516 3c-1.513494.4377241-3.230074.6693848-4.978516.671875-1.748397-.0011317-3.4656465-.2314451-4.9804688-.6679688.022103.6894484.0771195 1.3454525.1367188 1.9960938h-.15625c0-1-1-1-1-1h-1-1v2h.0078125c-.0005556.0337531-.0078125.0657146-.0078125.0996094 0 3.7124316 2.506106 6.8099336 5.9238281 7.7207026.3409599.404748.7001889.718273 1.0761719.916016v2.263672h-1v1h-1v1h6v-1h-1v-1h-1v-2.263672c.375468-.197868.733706-.511699 1.074219-.916016 3.418656-.910152 5.925781-4.00761 5.925781-7.7207026 0-.0338948-.007257-.0658563-.007812-.0996094h.007812v-2h-1-1-.015625s-.70623.0051-.984375.9570312v.0429688h-.015625-.142578c.05971-.6518197.114651-1.3092529.136719-2zm-11.884766 2h.90625c.26795 1 1 1 1 1h.2636719c.3251719 2.6160501.9374852 4.849622 1.75 6.427734-2.3741173-1.117568-4.0136719-3.521132-4.0136719-6.3281246 0-.3754237.0373785-.7405027.09375-1.0996094zm6.90625 0 .619141 1.3164062 1.380859.2109376-1 1.0253906.236328 1.4472656-1.236328-.6835938-1.2363281.6835938.2363281-1.4472656-1-1.0253906 1.380859-.2109376zm6 0h.90625c.056371.3591067.09375.7241857.09375 1.0996094 0 2.8091836-1.642408 5.2136586-4.019531 6.3300786.81347-1.578391 1.428486-3.8116733 1.753906-6.429688h.265625s1 0 1-1z" fill="#4d4d4d"/></svg>

<svg xmlns="http://www.w3.org/2000/svg" viewBox="0 0 22 22">
  <defs id="defs3051">
    <style type="text/css" id="current-color-scheme">
      .ColorScheme-Text {
        color:#4d4d4d;
      }
      </style>
  </defs>
 <path 
    style="fill:currentColor;fill-opacity:1;stroke:none" 
    d="M 15.978516 3 C 14.465022 3.4377241 12.748442 3.6693848 11 3.671875 C 9.251603 3.6707433 7.5343535 3.4404299 6.0195312 3.0039062 C 6.0416342 3.6933546 6.0966507 4.3493587 6.15625 5 L 6 5 C 6 4 5 4 5 4 L 4 4 L 3 4 L 3 6 L 3.0078125 6 C 3.0072569 6.0337531 3 6.0657146 3 6.0996094 C 3 9.812041 5.506106 12.909543 8.9238281 13.820312 C 9.264788 14.22506 9.624017 14.538585 10 14.736328 L 10 17 L 9 17 L 9 18 L 8 18 L 8 19 L 14 19 L 14 18 L 13 18 L 13 17 L 12 17 L 12 14.736328 C 12.375468 14.53846 12.733706 14.224629 13.074219 13.820312 C 16.492875 12.91016 19 9.812702 19 6.0996094 C 19 6.0657146 18.992743 6.0337531 18.992188 6 L 19 6 L 19 4 L 18 4 L 17 4 L 16.984375 4 C 16.984375 4 16.278145 4.0051 16 4.9570312 L 16 5 L 15.984375 5 L 15.841797 5 C 15.901507 4.3481803 15.956448 3.6907471 15.978516 3 z M 4.09375 5 L 5 5 C 5.26795 6 6 6 6 6 L 6.2636719 6 C 6.5888438 8.6160501 7.2011571 10.849622 8.0136719 12.427734 C 5.6395546 11.310166 4 8.906602 4 6.0996094 C 4 5.7241857 4.0373785 5.3591067 4.09375 5 z M 11 5 L 11.619141 6.3164062 L 13 6.5273438 L 12 7.5527344 L 12.236328 9 L 11 8.3164062 L 9.7636719 9 L 10 7.5527344 L 9 6.5273438 L 10.380859 6.3164062 L 11 5 z M 17 5 L 17.90625 5 C 17.962621 5.3591067 18 5.7241857 18 6.0996094 C 18 8.908793 16.357592 11.313268 13.980469 12.429688 C 14.793939 10.851297 15.408955 8.6180147 15.734375 6 L 16 6 C 16 6 17 6 17 5 z "
    class="ColorScheme-Text"
    />  
</svg>
